!!!OTL: Qiongren panwang laohongjun
!!!ARE: Asia, China,ÿYunnan
!! II, 43
!!!SCT: C1866
!!!YEM: Copyright 1995, estate of Helmut Schaffrath.
**kern
*ICvox
*Ivox
*M2/4
*k[f#]
*G:
{8b
8b
16.b
32dd
16b
32a
32b
=1
2dd
=2
16dd
16ee
8gg
16ee
16dd
16ee
16gg
=3
8ee
16dd
16gg
16ee
16dd
16b
16a
=4
2g}
=5
{8.a
16b
16b
16a
16g
16e
=6
2d}
=7
{8b
8b
16b
16dd
8ee
=8
8gg
16ee
16dd
8ee
16ee
16gg
=9
8ee
16ee
16gg
16ee
16dd
16b
16a
=10
2g}
=11
{8a
16a
16b
16b
16a
16g
16e
=12
2d}
=13
{8dd
8b
16b
16dd
8ee
=14
16ee
16dd
16ee
16dd
16ee
16dd
16dd
16ee
=15
4.gg
8ee
=16
8dd
16ee
16gg
16ee
16dd
16b
16a
=17
2g}
=18
{16dd
16b
16a
16b
16a
16g
8e
=19
2d}
==
!!!AGN: Shange
!!!AMT: simple duple
!!!AIN: vox
!!!EED: Helmut Schaffrath
!!!EEV: 1.0
*-
